X:1754
T:Easy Club Reel
O:england
M:C|
L:1/8
C:Jim Sutherland
R:reel
K:A
AEAc BFBd|cee^d eAce|fefg a~f3|afec dBcB|
AEAc BFBd|cee^d eAce|~f3g afec|1 dBcB A3E:|2 cdBc A2ag|
|:f2af dfaf|feae ceae|f2af defg|afec A~B3|
AEAc BFBd|cee^d eAce|~f3g afec|1 dBcB A2ag:|2 cdBc A3E||
